X:4
T:Lasses of Our Town. VWMLa.004
%%VWML:Anon2-3049-p3-0
F:http://www.vwml.org/record/Anon2/3049/p3
T:Highway to Eglinton,aka(ish!). VWMLa.004, The
R:Jig
S:Anon. MS, late 18thC, Vaughan Williams Mem. Library
N:MS has key signature D (2 #).
O:England;Yorkshire
Z:vmp/efdss.Simon Wilson. Reviewed PJH 2008.
M:6/8
L:1/8
Q:3/8=120
K:G
c|!turn!BAB cGE|GAG G2c|\
!turn!BAB cGE|DED D2c|\
!turn!BAB cGE|GAB c2e|dcB c2B|AFD D2:|
|:c|(B/c/d).B G2c|(B/c/d).B E2c|\
(B/c/d).B G2B|AFD D2c|\
(B/c/d).B G2c|(B/c/d).B c2e|dcB c2B|AFD D2:|
|:g|!turn!fef gdB|GAG G2g|!turn!fef gdB|ABA A2g|\
fef gdB|GAB c2e|dcB c2B|AFD D2:|
W:Key Dmaj in MS.
